X: 80
T: Radujcie się Bogu nawysszemu,
C: Mikołaj Gomółka
%%abc-version 2.0
%%abcx-abcm2ps-target-version 5.9.1 (29 Sep 2008)
%%abc-creator hum2abc beta
%%abcx-conversion-date 2021/10/04 07:59:10
%%abc-edited-by Marta Lawrence
%%abcx-initial-encoding-date 2020-02-15
%%humdrum-veritas 1578111321
%%humdrum-veritas-data 2093582062
%%linebreak <none>
%%barnumbers 0
L: 1/4
M: 3/1
N: Derived from pl-wn--sd-xvi-qu-273--081_gomolka-mikolaj--radujcie-sie-bogu-nawysszemu.krn
%%staves [1 2 3 4]
V: 1 clef=treble
V: 2
V: 3 clef=alto
V: 4
K: Bb
[V:1] c2B2G2A4F2 [|] 
[V:2] F2F2=EDC4D2 [|] 
[V:3] C2D2=E2F4D2 [|] 
[V:4] F,2B,2C2F,4B,3 [|] 
[V:1] f4=ef2<g2fed [|] 
[V:2] B4c2B2>A2B2 [|] 
[V:3] F4G2G4G2 [|] 
[V:4] CD2C2G,4G,2 [|] 
[V:1] [M:C|]=e4z2f2 [|] 
[V:2] [M:C|]c4z2F2 [|] 
[V:3] [M:C|]G4z2D2 [|] 
[V:4] [M:C|]C4z2B,2 [|] 
[V:1] f2f2f4 [|] 
[V:2] F2>G2ABc2 [|] 
[V:3] C2D=EFECD [|] 
[V:4] A,2B,2F,G,A,B, [|] 
[V:1] =e4d4[M:1/1] [|] 
[V:2] GA/B/c2A2BA[M:1/1] [|] 
[V:3] =EFG2F2F4[M:1/1] [|] 
[V:4] C4D2B,2[M:1/1] [|] 
[V:1] c3B [|] 
[V:2] GFG2 [|] 
[V:3] =E2 [|] 
[V:4] C4 [|] 
[V:1] [M:3/1]A4>F4c2c2 [|] 
[V:2] [M:3/1]A2F2c2>B2AGA2 [|] 
[V:3] [M:3/1]F4C2C2F,2C2 [|] 
[V:4] [M:3/1]F,4F,2C2C2F,2 [|] 
[V:1] c4A2B4B2[M:3/2] [|] 
[V:2] G4F2=EDEFGF[M:3/2] [|] 
[V:3] C4C2B,A,B,CDC[M:3/2] [|] 
[V:4] C,4F,2G,F,G,A,B,A,[M:3/2] [|] 
[V:1] B2GA2G [|] 
[V:2] =EDEF2E [|] 
[V:3] B,A,B,C2B, [|] 
[V:4] G,F,G,4 [|] 
[V:1] [M:C|]A4z2c2 [|] 
[V:2] [M:C|]F4z2A2 [|] 
[V:3] [M:C|]C4z2F2 [|] 
[V:4] [M:C|]F,4z2F,2 [|] 
[V:1] c2c2c2d4 [|] 
[V:2] G2F2>=E2D2 [|] 
[V:3] =E2A2>G2F4 [|] 
[V:4] C2A,4B,3 [|] 
[V:1] B2c3B [|] 
[V:2] BAGFGA2G [|] 
[V:3] =EDEF2E [|] 
[V:4] CD2C4 [|] 
[V:1] A32 |]  
[V:2] A32 |]  
[V:3] F32 |]  
[V:4] F,32 |]  


